icon-themes/sifr_svg/cmd/de/lc_numberformatthousands.svg

<svg viewBox="0 0 24 24" xmlns="http://www.w3.org/2000/svg"><g fill="#555753"><path d="m9 14v3h1 2v-3z"/><path d="m5 6c0 1.380708-1.6192675 3-3 3v2c1.1312865 0 2.1621838-.389978 3-1.0234375v7.0234375h2v-11zm13 0c-2.198703 0-4 1.8012972-4 4v3c0 2.198703 1.801297 4 4 4s4-1.801297 4-4v-3c0-2.1987028-1.801297-4-4-4zm0 2c1.125297 0 2 .8747028 2 2v3c0 1.125297-.874703 2-2 2s-2-.874703-2-2v-3c0-1.1252972.874703-2 2-2z" opacity=".35"/></g></svg>

<svg xmlns="http://www.w3.org/2000/svg" viewBox="0 0 24 24">
  <path
     style="fill:#555753"
     d="M 9 14 L 9 17 L 10 17 L 12 17 L 12 14 L 9 14 z "
     />
  <path
     style="fill:#555753;opacity:0.35"
     d="M 5 6 C 5 7.380708 3.3807325 9 2 9 L 2 11 C 3.1312865 11 4.1621838 10.610022 5 9.9765625 L 5 17 L 7 17 L 7 6 L 5 6 z M 18 6 C 15.801297 6 14 7.8012972 14 10 L 14 13 C 14 15.198703 15.801297 17 18 17 C 20.198703 17 22 15.198703 22 13 L 22 10 C 22 7.8012972 20.198703 6 18 6 z M 18 8 C 19.125297 8 20 8.8747028 20 10 L 20 13 C 20 14.125297 19.125297 15 18 15 C 16.874703 15 16 14.125297 16 13 L 16 10 C 16 8.8747028 16.874703 8 18 8 z "
     />
</svg>
